build/img/telegram.svg

<svg width="26" height="26" viewBox="0 0 26 26" fill="none" xmlns="http://www.w3.org/2000/svg">
<path fill-rule="evenodd" clip-rule="evenodd" d="M26 13C26 20.1793 20.1793 26 13 26C5.82075 26 0 20.1793 0 13C0 5.82075 5.82075 0 13 0C20.1793 0 26 5.82075 26 13ZM13.4658 9.59725C12.2016 10.1227 9.67417 11.2114 5.88467 12.8624C5.26933 13.1073 4.9465 13.3467 4.91725 13.5807C4.86742 13.9772 5.36358 14.1332 6.03742 14.3444C6.1295 14.3737 6.22483 14.4029 6.32233 14.4354C6.98642 14.651 7.87908 14.9034 8.34275 14.9132C8.76417 14.9218 9.23433 14.7485 9.75325 14.3932C13.2936 12.0023 15.1212 10.7943 15.236 10.7683C15.3173 10.7499 15.4299 10.7261 15.5058 10.7943C15.5816 10.8615 15.574 10.9893 15.5664 11.024C15.5166 11.2331 13.5731 13.0412 12.5656 13.9772C12.2514 14.2686 12.0293 14.4755 11.9838 14.5232C11.882 14.6283 11.778 14.729 11.6783 14.8254C11.0608 15.4191 10.5993 15.8654 11.7043 16.5934C12.2352 16.9433 12.6598 17.2326 13.0834 17.5208C13.546 17.836 14.0075 18.1502 14.6055 18.5423C14.7572 18.642 14.9023 18.7449 15.0443 18.8457C15.5827 19.2303 16.0669 19.5747 16.6649 19.5206C17.0116 19.4881 17.3713 19.162 17.5532 18.1881C17.9833 15.8849 18.8305 10.8973 19.0266 8.84108C19.0385 8.67037 19.0312 8.49885 19.0049 8.32975C18.9892 8.19318 18.9226 8.06751 18.8186 7.97767C18.6637 7.85092 18.4232 7.82383 18.3148 7.826C17.8263 7.83467 17.0766 8.09575 13.4658 9.59725Z" fill="white"/>
</svg>

<svg width="26" height="26" fill="none" xmlns="http://www.w3.org/2000/svg"><path fill-rule="evenodd" clip-rule="evenodd" d="M26 13c0 7.18-5.82 13-13 13S0 20.18 0 13 5.82 0 13 0s13 5.82 13 13ZM13.466 9.597c-1.264.526-3.792 1.614-7.581 3.265-.616.245-.938.485-.968.719-.05.396.447.552 1.12.763l.285.091c.664.216 1.557.468 2.02.478.422.009.892-.165 1.411-.52 3.54-2.39 5.368-3.599 5.483-3.625.081-.018.194-.042.27.026.076.067.068.195.06.23-.05.21-1.993 2.017-3 2.953a30.38 30.38 0 0 0-.582.546 12.32 12.32 0 0 1-.306.302c-.617.594-1.079 1.04.026 1.768.531.35.956.64 1.38.928.462.315.924.63 1.521 1.021.152.1.297.203.44.304.538.384 1.022.729 1.62.675.347-.033.706-.359.888-1.333.43-2.303 1.277-7.29 1.474-9.347a2.29 2.29 0 0 0-.022-.511.548.548 0 0 0-.186-.352c-.155-.127-.396-.154-.504-.152-.489.009-1.238.27-4.85 1.771Z" fill="#fff"/></svg>
